svgs/light/car-rear.svg

<svg xmlns="http://www.w3.org/2000/svg" viewBox="0 0 512 512"><!-- Font Awesome Pro 6.0.0-alpha2 by @fontawesome - https://fontawesome.com License - https://fontawesome.com/license (Commercial License) --><path d="M461.137 203.762L428.625 90C418.875 55.844 387.25 32 351.719 32H160.281C124.75 32 93.125 55.844 83.375 90L50.863 203.762C20.729 219.955 0 251.393 0 288V352C0 375.629 12.951 396.037 32 407.123V464C32 472.836 39.164 480 48 480C56.838 480 64 472.836 64 464V416H448V464C448 472.836 455.164 480 464 480C472.838 480 480 472.836 480 464V407.123C499.049 396.037 512 375.629 512 352V288C512 251.393 491.271 219.955 461.137 203.762ZM114.125 98.812C120 78.312 138.969 64 160.281 64H351.719C373.031 64 392 78.312 397.875 98.812L424.76 192.883C421.83 192.613 419 192 416 192H96C93 192 90.17 192.613 87.24 192.883L114.125 98.812ZM320 384H192V352H320V384ZM432 320H480V352C480 369.645 465.645 384 448 384H352V352C352 334.326 337.674 320 320 320H192C174.326 320 160 334.326 160 352V384H64C46.355 384 32 369.645 32 352V320H80C88.836 320 96 312.836 96 304C96 295.162 88.836 288 80 288H32C32 252.709 60.711 224 96 224H416C451.291 224 480 252.709 480 288H432C423.164 288 416 295.162 416 304C416 312.836 423.164 320 432 320Z"/></svg>

<svg xmlns="http://www.w3.org/2000/svg" viewBox="0 0 512 512"><!--! Font Awesome Pro 6.4.0 by @fontawesome - https://fontawesome.com License - https://fontawesome.com/license (Commercial License) Copyright 2023 Fonticons, Inc. --><path d="M159.6 64H352.4c21.2 0 39.9 13.9 46 34.2l28.3 94.4c-3.5-.4-7.1-.6-10.7-.6H96c-3.6 0-7.2 .2-10.7 .6l28.3-94.4c6.1-20.3 24.8-34.2 46-34.2zM74.7 227.9l.1-.3c6.6-2.3 13.8-3.6 21.2-3.6H416c7.4 0 14.5 1.3 21.2 3.6l.1 .3 .5-.1c24.6 8.9 42.3 32.5 42.3 60.2H432c-8.8 0-16 7.2-16 16s7.2 16 16 16h48v32c0 17.7-14.3 32-32 32H352V352c0-17.7-14.3-32-32-32H192c-17.7 0-32 14.3-32 32v32H64c-17.7 0-32-14.3-32-32V320H80c8.8 0 16-7.2 16-16s-7.2-16-16-16H32c0-27.7 17.6-51.3 42.3-60.2l.5 .1zM320 384H192V352H320v32zM48.7 203.4l-.4 1.3C19.4 221.2 0 252.3 0 288v64c0 23.7 12.9 44.4 32 55.4V464c0 8.8 7.2 16 16 16s16-7.2 16-16V416H448v48c0 8.8 7.2 16 16 16s16-7.2 16-16V407.4c19.1-11.1 32-31.7 32-55.4V288c0-35.7-19.4-66.8-48.3-83.3l-.4-1.3L429 89c-10.2-33.8-41.3-57-76.6-57H159.6C124.3 32 93.1 55.2 83 89L48.7 203.4z"/></svg>
